X:1
T:Piano Trio in E Flat Major
T:Franz Schubert
T:Piano solo arrangement by Friedrich Hermann 
T:2nd Movement
%%score { ( 1 4 ) | ( 2 3 ) }
L:1/8
Q:1/4=48
M:2/4
K:Eb
V:1 treble nm="Piano"
V:4 treble 
V:2 bass 
V:3 bass 
V:1
"^Andante con moto" .[CEG].[CEG] .[CEG].[CEG]/>.[CFA]/ | .[CEG].[CEG] .[CEG].[CEG]/>.[CFA]/ | %2
!pp! .[CEG].[CEG].[CEG].[CEG] | .[FA].[FA] .[FA].[FA] | .[CEG].G!p! .[FG].[FG] | %5
 .[EG].[EG] .[EG].[EG]/>.[FA]/ |!p! .[EG]!pp!.[EG].[EG]!p!.[EG] |!pp! .[EG].[EG].[EG].[EG] | %8
 .[EG].G!p! .[FG].[FG] | .[EG]!pp!.[EG].[EG].[EG] |!p! .G!pp!.G!mp!.G!p!.G | %11
!pp!!>(! .[B,EG].[B,EG].[B,EG].[B,EG]!>)! | .[CEG].[CEG] .[E=A].[EA] | [=B,DG][B,DG][B,DG] z | %14
 z!pp! .G G,2 | z G G,2 |!pp! .G,.[Gc] .[Gc].[Gc] | [DAc][DAc] [F=B]!p![FB] | .[Ec].c .[Gc].[Gc] | %19
 .[DAc].[DAc]!pp! .[FG=B].[FGB] | .[EGc] .[G,E].[G,E].[G,E]/>.[A,F]/ | %21
 .[G,E].[G,E].[G,E].[G,E]/>.[A,F]/ |!mp! [Gg]2 [Gg]2 | a/4b/4[cc']/- [cc']2 [Bb]/[Aa]/ | %24
 [Gg][ee']T=b/8c'/8b/8c'/8b/8c'/8b/8c'/8b/8c'/8b/8c'/8 z/ | [cc']4 | [cc']3 [cc'] | %27
 [cc']/4[_B_b]7/4 [Gg]2 | [Gg][ee']T=b/8c'/8b/8c'/8b/8c'/8b/8c'/8b/8c'/8b/8c'/8 z/ | [cc']4 | %30
 [ee']2!mf! [dd']2 |!>(! [dd']/[Gg]/- [Gg]2!mp! [Gg]!>)! | [Gg]2!p! [=A=a]>[Gg] | [Gg]3 .g | %34
 G3 .g | G2- G/.[G,G]/.[=A,=A]/.[=B,=B]/ | .[Cc][ee'] [cc']>.[Ee] | %37
 .[Dd][Dd]- [Dd]/!p!e/4f/4g/4f/4e/4d/4 | c[ee'] [cc']>.[Gg] | .[Ff][Ff]- [Ff]/g/4a/4b/4a/4g/4f/4 | %40
!pp! e.e B2 | B.c (6:4:3A3/2xG/ | F.f (6:4:3d3/2xc/ | B.g e2 | d.b!p! (6:4:3a3/2xf/ | %45
 e.c (6:4:3B3/2xe/ | d.b (6:4:3a3/2xf/ | e.c (6:4:3B3/2xb/ | =bc' (6:4:3d'3/2xb/ | %49
!<(! c'2-!<)! c'd'/e'/ | =gb/ z/ (6:4:3a3/2xf/ | gc/ z/ (6:4:3[FB]3/2xA/ | %52
 gc/!pp! z/ (6:4:3[DA]3/2xF/ |[K:bass] EC/ z/ (6:4:3[F,B,]3/2xD/ |!pp! EC/ z/ (6:4:3[F,B,]3/2xD/ | %55
 EC/ z/ (6:4:3[F,B,]3/2xD/ |[K:treble]!p! E z z!p! b |!p! g3!p! e |!p! c3!p! A |!p! F3!p! B | %60
!p! G3!p! b |!p! g3!p! e |!p! c3!p! A |!p! (3z/!pp! F/B/(3d/f/b/ (3d'/f/b/!p!(3d/!pp!f/B/ | %64
!p! (3z/!pp! F/B/(3d/f/b/ (3d'/f/b/!p!(3d/!pp!f/B/ | %65
!p! (3z/!pp! F/B/(3d/f/b/ (3d'/f/b/!p!(3d/!pp!f/B/ |!mp! E z z g | e3 B | E2 z2 | z2 z a | f3 d | %71
 A2 z2 | z2 z b | g3 [=eb] | _d2 z2 | z f c2 | Ac' a2 | [g=bg'] .[Gg] z .[gc'_e'g'] | %78
 [g=bd'g'] z z .[CEG] | (3[=B,DG]/ .B,/.D/(3.G/.=B/.d/ !arpeggio!.[GBg] z || %80
 !arpeggio![G,CE] .c.C .[G,E]/>.[A,F]/ | [G,E] .c.C .[G,E]/>.[A,F]/ | [G,E] z z2 |!p! [Gg]2 [Gg]2 | %84
 =a/4b/4[cc']/- [cc']2 [Bb]/[_A_a]/ | %85
 [Gg][ee']T=b/8c'/8b/8c'/8b/8c'/8b/8c'/8b/8c'/8b/8c'/8=a/4b/4 | [cc'] [G,CE][G,CE][G,CE] | %87
!mf! [G,G]2!mf! [G,G]2 | A/4B/4[Cc]/- [Cc]2 [B,B]/[A,A]/ | [G,G][Cc]- [Cc]/[B,B]/[A,A]/[G,G]/ | %90
 [F,F] .[Cc]2!f! .[Cc] | [Cc][Gg]T=B/8c/8B/8c/8B/8c/8B/8c/8B/8c/8B/8c/8=A/4B/4 | %92
!p! (3[FG=B]/ f/e/(3d/a/g/ (3f/d'/c'/(3=b/a/!f!g/ |!f! (3f/e/d/(3c/=B/A/ (3G/A/G/(3F/E/D/ | %94
 [CEc] z z2 | [CEGc]2 z2 |[Q:1/4=24] !fermata![CEGc]4 |] %97
V:2
!pp! .C,.C, .C,.C,/>.F,,/ | .C,.C, .C,.C,/>.F,,/ |!p! G,2 G,2 | A,/4B,/4C/- C2 B,/A,/ | %4
 G,[I:staff -1]E!pp![I:staff +1] x2 | .C,!pp!.C, .C,.C,/>!mf!.F,,/ |!pp! .C,.C,.C,.C, | %7
!p! C<B,!p! G,2 |!p! G,[I:staff -1]E!pp![I:staff +1] x2 | .C,.C,.C,.C, | %10
!pp!!<(! .C,.C,.B,,!p!.B,,!<)! |!mp! D/G,/-!pp! G,2!p! G, |!p! G,2 =A,>G, | G,3 G, | G,,3!p! .G, | %15
 G,,3 F,, |!p![I:staff -1] CEC>[I:staff +1]E, | D,D,- D,/!mp!"^cresc."E,/4F,/4.E,/.D,/ | %18
 C,[I:staff -1]EC>[I:staff +1]E, | D,D,- D,/!p!E,/4F,/4.E,/.D,/ | %20
!p! .[C,,C,] .C,.C,.C,/>!mp!.F,,/ | .C,.C,.C,.C,/>.F,,/ |!p! .[C,E,G,].[C,E,G,].[C,E,G,].[C,E,G,] | %23
 .[C,F,A,].[C,F,A,].[C,F,A,].[C,F,A,] | .[C,E,G,].[C,E,G,].[G,,F,G,].[G,,F,G,] | %25
 .[C,E,G,].[C,E,G,].[C,E,G,].[C,E,G,]/>.[F,A,]/ | .[C,E,G,].[C,E,G,].[C,E,G,].[C,E,G,] | %27
 .[E,G,].[E,G,].[E,G,].[C,E,G,] | .[G,,E,G,].[G,,E,G,].[G,,F,G,].[G,,F,G,] | %29
 .[C,E,G,].[C,E,G,].[C,E,G,].[C,E,G,]/>.[F,A,]/ | %30
!<(! .[C,E,G,].[C,E,G,].[B,,D,G,]!mp!.[B,,G,]!<)! | .[E,G,B,].[E,G,B,]!p!.[E,G,B,].[E,G,B,] | %32
"^dim." .[C,E,C]!pp!.[C,E,C].[C,E,C].[C,E,C] |!pp! .[G,,D,=B,].G,,.G,, z | z .G, G,,2 | %35
 z G, G,,F,, | .E,, .[E,G,C].[E,G,C].[E,G,C] | .[F,A,C].[F,A,C]"^cresc." .[G,=B,].[G,B,] | %38
 .[A,CE].[A,CE] .[E,G,C].[C,E,C] |!p! .[A,,E,C].[E,C] .[B,,D,B,].[B,,D,B,] | [E,G,]!p! E,, z G,, | %41
 .F,,.F, z E, | .D,.B,, z A,, | .G,,.E,, z G,, | .B,,,.B,, z B,, | .B,,,.B,, z B,, | %46
 .B,,,.B,, z B,, | .B,,,.B,, z B,, | .G,,.G, z G,, | .A,,.A,,, z =A,,, | .B,,,.B,, z B,, | %51
 .B,,,.B,, z B,, |"^decresc." .B,,,.B,, z B,, | .B,,,.B,, z B,, | .B,,,.B,, z B,, | %55
 .B,,,.B,, z B,, |!pp!"_con Ped."!ped! .E,,.G,,!ped-up!!ped! E,,2!ped-up! | %57
!ped! .E,,.G,, E,,2!ped-up!!ped!!ped-up! |!ped! .E,,.A,, E,,2!ped-up!!ped!!ped-up! | %59
!ped! .E,,.B,, E,,2!ped-up!!ped!!ped-up! |!ped! .E,,.E, E,,2!ped-up!!ped!!ped-up! | %61
!ped! .E,,.G,, E,,2!ped-up!!ped!!ped-up! |!ped! .E,,.A,, E,,2!ped-up!!ped!!ped-up! | %63
!ped! .E,,.B,, E,,2!ped-up!!ped!!ped-up! |!ped! .E,,.D, E,,2!ped-up!!ped!!ped-up! | %65
!ped! .E,,.A, E,,2!ped-up!!ped!!ped-up! |!ff! E,, .[G,G]!f! [E,E]2- | [E,E].[B,,B,]!mf! [G,,G,]2- | %68
!<(! [G,,G,].[E,,E,] [B,,,B,,]/!f![G,,,G,,]/[A,,,A,,]/[B,,,B,,]/!<)! | %69
!ff! [B,,,B,,] .[A,A]!f! [F,F]2- | [F,F].[D,D]!mf! [A,,A,]2- | %71
!<(! [A,,A,][F,,F,]/[E,,E,]/ [D,,D,]/!f![C,,C,]/[B,,,B,,]/[A,,,A,,]/!<)! | %72
!ff! [G,,,G,,][K:treble] .[B,B]!f! [G,G]2- | [G,G][K:bass] .[=E,=E]!mf! [_D,_D]2- | %74
!<(! [D,D][B,,B,]/[A,,A,]/ [G,,G,]/!f![=E,,=E,]/[F,,F,]/[G,,G,]/!<)! |!ff! [A,,A,]3 .[A,,A,] | %76
!mf!"^cresc." [A,,A,]2!<(! (3[A,,A,]/ [A,,,A,,]/[A,,,A,,]/(3[A,,,A,,]/[A,,,A,,]/[A,,,A,,]/!<)! | %77
!ff! [G,,,G,,] z z .[C_E] | [=B,D] x z .[C,E,] | [=B,,D,] z !arpeggio!.[G,,D,=B,] z || %80
!pp! C,, z z .C,/z/4.F,,/4 | .[C,,C,] z z .C,/z/4.F,,/4 | .[C,,C,] .[C,E,G,].[C,E,G,].[C,E,G,] | %83
!pp! .[C,=E,G,].[C,E,_D].[C,E,C].[C,E,B,] | .[F,=A,C].[F,A,C].[F,_A,C].[F,C] | %85
 .[G,C_E].[G,CE].[G,DF].[G,DF] | [CE]!mp! C,C,C, |!mp! [C,,C,][B,,,B,,][A,,,A,,][G,,,G,,] | %88
!mf! [F,,,F,,][F,,,F,,][^F,,,^F,,][F,,,F,,] | [G,,,G,,][G,,,G,,][A,,,A,,][A,,,A,,] | %90
!<(! [=A,,,=A,,]!mf![B,,,B,,][A,,,A,,][_A,,,_A,,]!<)! | %91
!f! [G,,,G,,]!mp!!>(![G,,,G,,]!>)!!p! [G,,,G,,][G,,,G,,] | %92
!ped!!<(! (3[G,,,G,,]/[K:treble] F/E/(3D/A/G/ (3F/d/c/(3=B/A/G/!ped-up!!<)! | %93
[K:bass]"^decresc."!ped! (3F/E/D/(3C/=B,/A,/!ped-up! (3G,/A,/G,/(3F,/E,/D,/ | %94
!p! [C,,C,] z z [C,C] |!pp! [C,,C,]2 z [C,C] |!ppp! !fermata![C,,C,]4 |] %97
V:3
 x4 | x4 | .C,.C,.C,.C, | .C,.C,.C,.C, | .C,.C,.G,,.G,, | x4 | x4 | .E,!pp!.E, .E,!pp!.E, | %8
 .G,,.G,,.G,,.G,, | x4 | x4 | .E,.E,.E,.E, | .C,.C,.C,.C, | G,,G,,G,, z | x4 | x4 | %16
 .E,,.E,,.E,, .E,, | .F,,.F,,.G,,.G,, | .A,,.A,,.E,,.E,, | .F,,.F,,.G,,.G,, | x4 | x4 | x4 | x4 | %24
 x4 | x4 | x4 | x4 | x4 | x4 | x4 | x4 | x4 | x4 | x4 | x4 | x4 | x4 | x4 | x4 | x4 | x4 | x4 | %43
 x4 | x4 | x4 | x4 | x4 | x4 | x4 | x4 | x4 | x4 | x4 | x4 | x4 | x4 | x4 | x4 | x4 | x4 | x4 | %62
 x4 | x4 | x4 | x4 | x4 | x4 | x4 | x4 | x4 | x4 | x[K:treble] x3 | x[K:bass] x3 | x4 | x4 | x4 | %77
 x2 [G,-G]2 | .[G,G].[G,G] [G,,-G,]2 | [G,,G,] z x2 || x4 | x4 | x4 | x4 | x4 | x4 | x4 | x4 | x4 | %89
 x4 | x4 | x4 | x/3[K:treble] x11/3 |[K:bass] x4 | x4 | x4 | x4 |] %97
V:4
 x4 | x4 | x4 | x4 | x2 T=B,/8C/8B,/8C/8B,/8C/8B,/8C/8B,/8C/8B,/8C/8=A,/4B,/4 | C4 | C3 C | x4 | %8
 x2 T=B,/8C/8B,/8C/8B,/8C/8B,/8C/8B,/8C/8B,/8C/8=A,/4B,/4 | C4 | E2 D2 | x4 | x4 | x4 | x4 | %15
 x2 z/!p! G,/=A,/=B,/ | x4 | x4 | x4 | x4 | x4 | x4 | x4 | x4 | x2 =B3/2=a/4=b/4 | x4 | x4 | x4 | %28
 x2 =B3/2=a/4=b/4 | x4 | x4 | x4 | x4 | x4 | x4 | x4 | x4 | x4 | x4 | x4 | %40
 (3z/ G/B/(3e/E/G/ (3B/E/G/(3B,/E/G/ | (3A/C/F/(3A/C/F/ (3A/C/F/(3A,/C/G/ | %42
 (3z/ B,/A/(3B/F/A/ (3B/D/F/(3B/D/F/ | (3B/E/G/(3B/E/G/ (3B/E/G/(3B/E/G/ | %44
 (3F/A/B/(3d/!p!A/B/ (3f/A/B/(3d/A/B/ | (3z/ G/B/(3c/E/A/ (3B/B,/E/(3G/E/G/ | %46
 (3F/A/B/(3d/A/B/ (3f/A/B/(3d/A/B/ | (3z/ G/B/(3c/E/A/ (3G/B,/E/(3G/B/e/ | %48
 (3z/ d/g/(3c'/e/g/ (3f/g/=b/(3d/g/d/ | (3c/e/!mp!c/(3d/f/d/ (3e/!>(!_g/e/(3g/!p!e/g/!>)! | %50
 (3z/ B/e/(3g/B/e/ (3f/B/d/(3f/A/B/ | (3G/B/E/(3A/C/E/ (3F/A/B,/(3D/F/D/ | %52
 (3E/B,/E/(3G/E/G/ (3D/F/B,/(3D/B,/A,/ | %53
[K:bass] (3G,/B,/E,/(3A,/C,/E,/ (3F,/!pp!A,/B,,/(3D,/F,/A,/ | %54
 (3G,/B,/E,/(3A,/C,/E,/ (3F,/A,/B,,/(3D,/F,/A,/ | (3G,/B,/E,/(3A,/C,/E,/ (3F,/A,/B,,/(3D,/F,/A,/ | %56
[K:treble] (3z/!pp! E,/G,/(3B,/E/G/ (3B/E/G/(3B,/!pp!E/G,/ | %57
 (3z/!pp! E,/G,/(3B,/E/G/ (3B/E/G/(3B,/!pp!E/G,/ | (3z/!pp! F,/A,/(3C/F/A/ (3c/F/A/(3C/!pp!F/A,/ | %59
 (3z/!pp! F,/B,/(3D/F/B/ (3d/F/B/(3D/!pp!F/B,/ | (3z/!pp! G,/B,/(3E/G/B/ (3e/G/B/(3E/!pp!G/B,/ | %61
 (3z/!pp! E/G/(3B/e/g/ (3b/e/g/(3B/!pp!e/G/ | (3z/!pp! F/A/(3_c/f/a/ (3_c'/e/a/(3c/!pp!f/A/ | %63
 F3 B | F3 B | F3 B | %66
 (3[egbe']/[egbe']/[egbe']/(3[egbe']/[egbe']/[egbe']/ (3[egbe']/[egbe']/[egbe']/(3[egbe']/[egbe']/[egbe']/ | %67
 (3[gbe']/[egbe']/[egbe']/(3[egbe']/[egbe']/[egbe']/ (3[egbe']/[egbe']/[egbe']/(3[egbe']/[egbe']/[egbe']/ | %68
 (3[egbe']/[egbe']/[egbe']/(3[egbe']/[egbe']/[egbe']/ (3[egbe']/[egbe']/[egbe']/(3[egbe']/[egbe']/[egbe']/ | %69
 (3[dfbd']/[dfbd']/[dfbd']/(3[dfbd']/[dfbd']/[dfbd']/ (3[dfbd']/[dfbd']/[dfbd']/(3[dfbd']/[dfbd']/[dfbd']/ | %70
 (3[dfbd']/[dfbd']/[dfbd']/(3[dfbd']/[dfbd']/[dfbd']/ (3[dfbd']/[dfbd']/[dfbd']/(3[dfbd']/[dfbd']/[dfbd']/ | %71
 (3[dfbd']/[dfbd']/[dfbd']/(3[dfbd']/[dfbd']/[dfbd']/ (3[dfbd']/[dfbd']/[dfbd']/(3[dfbd']/[dfbd']/[dfbd']/ | %72
 (3[=eb_d'=e']/[ebd'e']/[ebd'e']/(3[ebd'e']/[ebd'e']/[ebd'e']/ (3[ebd'e']/[ebd'e']/[ebd'e']/(3[ebd'e']/[ebd'e']/[ebd'e']/ | %73
 (3[=eb_d'=e']/[ebd'e']/[ebd'e']/(3[ebd'e']/[ebd'e']/[ebd'e']/ (3[ebd'e']/[ebd'e']/[ebd'e']/(3[ebd'e']/[ebd'e']/[ebd'e']/ | %74
 (3[=eb_d'=e']/[ebd'e']/[ebd'e']/(3[ebd'e']/[ebd'e']/[ebd'e']/ (3[ebd'e']/[ebd'e']/[ebd'e']/(3[ebd'e']/[ebd'e']/[ebd'e']/ | %75
 (3[fac'f']/[fac'f']/[fac'f']/(3[fac'f']/[fac'f']/[fac'f']/ (3[fac'f']/[fac'f']/[fac'f']/(3[fac'f']/[fac'f']/[fac'f']/ | %76
 (3[^fc'^f']/[fc'f']/[fc'f']/(3[fc'f']/[fc'f']/[fc'f']/ (3[fc'f']/[fc'f']/[fc'f']/(3[fc'f']/[fc'f']/[fc'f']/ | %77
 x4 | x4 | x4 || x4 | x4 | x4 | x4 | x4 | x4 | x4 | [CE]!mp![CE] [CE]!mp![CE] | EE EE | %89
 [CE][EG]EC | [CE]=E [F=A][_E^F] | [EG][ce] [FG][FG] | x4 | x4 | x4 | x4 | x4 |] %97

